X:1
T:All The Way To Galway (The Kerry Cow)
L:1/8
Q:1/4=110
M:2/4
K:D
|:"D""^All The Way To Galway (The Kerry Cow)" z4 |"D" z4 |"G" z4 |"A" z4 |
"D" z4 |"D" z4 |"G""A" z4 |"D" z4 ::
"D" d>e fd |"A" cA A>d |"G" BG GA/B/ |"A" cA A2 |
"D" d>e fd |"A" cA Ad |"G" BG"A" AF |"D" D2 D2 :|
